img/VK-light.svg

<svg width="25" height="24" viewBox="0 0 25 24" fill="none" xmlns="http://www.w3.org/2000/svg">
<rect x="0.5" width="24" height="24" rx="12" fill="#21DAFF"/>
<path d="M13.0895 16.1998C8.57957 16.1998 6.00718 13.0467 5.89999 7.7998H8.15908C8.23329 11.6509 9.89875 13.2821 11.2179 13.6184V7.7998H13.3451V11.1211C14.6478 10.9782 16.0164 9.46467 16.4781 7.7998H18.6053C18.4313 8.66325 18.0845 9.4808 17.5866 10.2013C17.0886 10.9218 16.4502 11.5298 15.7114 11.9872C16.5361 12.4051 17.2646 12.9967 17.8487 13.7229C18.4328 14.449 18.8593 15.2932 19.1 16.1998H16.7585C16.5424 15.4124 16.1032 14.7075 15.496 14.1735C14.8888 13.6395 14.1406 13.3002 13.3451 13.198V16.1998H13.0895Z" fill="white"/>
</svg>

<svg width="25" height="24" fill="none" xmlns="http://www.w3.org/2000/svg"><rect x=".5" width="24" height="24" rx="12" fill="#21DAFF"/><path d="M13.09 16.2c-4.51 0-7.083-3.153-7.19-8.4h2.26c.073 3.85 1.739 5.482 3.058 5.818V7.8h2.127v3.321c1.303-.143 2.671-1.656 3.133-3.321h2.127a6.474 6.474 0 01-1.018 2.401 6.335 6.335 0 01-1.876 1.786 6.536 6.536 0 012.138 1.736A6.69 6.69 0 0119.1 16.2h-2.341a4.165 4.165 0 00-1.263-2.026 4.036 4.036 0 00-2.15-.976V16.2h-.257z" fill="#fff"/></svg>
